X: 76
T: Red Steer
B: canberra pickers and fiddlers
B: old time tunes update
B: tunes
M:2/4
L:1/16
Q: 1/4=100
K:A
V:1 
[P:A] "A"e2a2 a3f | e2a2 a3f | e2a2 abaf | "D"e2c2 "E"!uppermordent!B2A2 | 
"A"a4 a2a2 | b2a2 a3f | "D"e2a2 abaf | "E"eBc2 !uppermordent!B2A2 ||
[P:B] |: "A"e3c "D"Adfd | "E"ecec "A"BABc | Accc "D"dcdf | "E"efec "A"!uppermordent!B2Ac :|  
[P:C] "A"e2c2 e2c2 | efec BABc | "D"e2c2 e2c2 | "E"efec BABc | 
"A"ecBA "D"defd |  "E"efec "A"BABc | ABcA "D"dcdf | "E"efec "A"!uppermordent!B2A2 ||  
% abcbook-tune_id 67a7d9ec6885b2c83b6c0151
% abcbook-tune_composer_id 
% abcbook-link-0 https://www.youtube.com/watch?v=RI4-DYm9Xno
% abcbook-link-title-0 Brittany Haas &amp; Bruce Molsky - &quot;Red Steer&quot;
% abcbook-boost 0
% abcbook-difficulty 0
% abcbook-tags old time tunes
% abcbook-tablature 
% abcbook-transpose 
% abcbook-tuning AEAE
% abcbook-lastupdated 1739219537092
% abcbook-src-url 
% abcbook-soundfonts 
% abcbook-repeats 1


